images/illustrations/insights.svg

<svg width="48" height="48" viewBox="0 0 48 48" fill="none" xmlns="http://www.w3.org/2000/svg">
<path fill-rule="evenodd" clip-rule="evenodd" d="M22.876 29.5228L27.8057 24.7794L29.1924 26.2206L24.5694 30.669V37.2434H22.5694V30.2434V29.8179L22.876 29.5228ZM20.2403 29.5001L15.2403 25.0001L13.9023 26.4867L18.5713 30.6888V37.2434H20.5713V30.2434V29.7981L20.2403 29.5001Z" fill="#FF0033"/>
<path fill-rule="evenodd" clip-rule="evenodd" d="M8 22.7551C8 27.8545 10.8274 32.2936 15 34.5902V41.2551H17V45.2551H26V41.2551H28V34.5902C32.1726 32.2936 35 27.8545 35 22.7551C35 15.2993 28.9558 9.25513 21.5 9.25513C14.0442 9.25513 8 15.2993 8 22.7551ZM26 37.2551V39.2551H17V37.2551H26ZM26 35.2551V33.3414C30.1149 31.59 33 27.5095 33 22.7551C33 16.4039 27.8513 11.2551 21.5 11.2551C15.1487 11.2551 10 16.4039 10 22.7551C10 27.5095 12.8851 31.59 17 33.3414V35.2551H26ZM19 43.2551V41.2551H24V43.2551H19Z" fill="#030322"/>
<path fill-rule="evenodd" clip-rule="evenodd" d="M35.407 5.05174L36.9705 6.29895L33.2289 10.9894L31.6654 9.74219L35.407 5.05174ZM39.1706 11.8922L40.2844 13.5534L36.9622 15.7811L35.8483 14.12L39.1706 11.8922ZM26.2939 7.28367L28.172 7.97131L29.5473 4.21517L27.6692 3.52753L26.2939 7.28367Z" fill="#FF0033"/>
</svg>

<svg width="48" height="48" fill="none" xmlns="http://www.w3.org/2000/svg"><path fill-rule="evenodd" clip-rule="evenodd" d="M22.876 29.523l4.93-4.744 1.386 1.442-4.623 4.448v6.574h-2v-7.425l.307-.295zM20.24 29.5l-5-4.5-1.338 1.487 4.67 4.202v6.554h2v-7.445l-.332-.298z" fill="#F03"/><path fill-rule="evenodd" clip-rule="evenodd" d="M8 22.755c0 5.1 2.827 9.539 7 11.835v6.665h2v4h9v-4h2V34.59c4.173-2.296 7-6.736 7-11.835 0-7.456-6.044-13.5-13.5-13.5S8 15.3 8 22.755zm18 14.5v2h-9v-2h9zm0-2v-1.914c4.115-1.751 7-5.832 7-10.586 0-6.351-5.149-11.5-11.5-11.5S10 16.404 10 22.755c0 4.755 2.885 8.835 7 10.586v1.914h9zm-7 8v-2h5v2h-5z" fill="#030322"/><path fill-rule="evenodd" clip-rule="evenodd" d="M35.407 5.052l1.564 1.247-3.742 4.69-1.564-1.247 3.742-4.69zm3.764 6.84l1.113 1.661-3.322 2.228-1.114-1.661 3.323-2.228zM26.294 7.284l1.878.687 1.375-3.756-1.878-.687-1.375 3.756z" fill="#F03"/></svg>
